replication/atom_indices/EAS_38_atomIndicesCap.svg

<?xml version="1.0" encoding="UTF-8"?>
<svg baseProfile="full" version="1.1" viewBox="0 0 800 200" xml:space="preserve" xmlns="http://www.w3.org/2000/svg">

 <!-- END OF HEADER -->
<rect width="800" height="200" fill="#fff"> </rect>
<path class="bond-0" d="m106.52 66.805 5.774 35.313" fill="none" stroke="#000" stroke-width="2px"/>
<path class="bond-0" d="m98.883 73.492 4.0428 24.719" fill="none" stroke="#000" stroke-width="2px"/>
<path class="bond-1" d="m106.52 66.805-26.867-10.159" fill="none" stroke="#000" stroke-width="2px"/>
<path class="bond-2" d="m57.475 58.754-7.8902 6.4552" fill="none" stroke="#000" stroke-width="2px"/>
<path class="bond-2" d="m49.584 65.209-7.8903 6.4552" fill="none" stroke="#00f" stroke-width="2px"/>
<path class="bond-2" d="m60.56 67.355-5.5231 4.5186" fill="none" stroke="#000" stroke-width="2px"/>
<path class="bond-2" d="m55.037 71.873-5.5232 4.5187" fill="none" stroke="#00f" stroke-width="2px"/>
<path class="bond-3" d="m65.072 44.403-2.3006-14.068" fill="none" stroke="#000" stroke-width="2px"/>
<path class="bond-3" d="m62.771 30.335-2.3007-14.068" fill="none" stroke="#0c0" stroke-width="2px"/>
<path class="bond-4" d="m34.097 86.015 2.3006 14.069" fill="none" stroke="#00f" stroke-width="2px"/>
<path class="bond-4" d="m36.398 100.08 2.3007 14.068" fill="none" stroke="#000" stroke-width="2px"/>
<path class="bond-5" d="m34.121 128.5-7.7116 9.621" fill="none" stroke="#000" stroke-width="2px"/>
<path class="bond-5" d="m26.409 138.12-7.7115 9.621" fill="none" stroke="#00f" stroke-width="2px"/>
<path class="bond-6" d="m53.275 126.4 13.463 5.091" fill="none" stroke="#000" stroke-width="2px"/>
<path class="bond-6" d="m58.34 119.1 9.4242 3.564" fill="none" stroke="#000" stroke-width="2px"/>
<path class="bond-7" d="m88.912 129.38 15.78-12.911" fill="none" stroke="#000" stroke-width="2px"/>
<path class="bond-8" d="m79.801 143.73-1.3575 28.654" fill="none" stroke="#000" stroke-width="2px"/>
<path class="bond-9" d="m126.87 114.36 13.463 5.091" fill="none" stroke="#000" stroke-width="2px"/>
<path class="bond-10" d="m162.5 117.34 7.89-6.455" fill="none" stroke="#000" stroke-width="2px"/>
<path class="bond-10" d="m170.39 110.89 7.89-6.455" fill="none" stroke="#3cc" stroke-width="2px"/>
<path class="bond-11" d="m154.91 131.7 2.3 14.068" fill="none" stroke="#000" stroke-width="2px"/>
<path class="bond-11" d="m157.21 145.76 2.301 14.069" fill="none" stroke="#3cc" stroke-width="2px"/>
<path class="bond-12" d="m64.701 183.22-4.9665 1.358" fill="none" stroke="#000" stroke-width="2px"/>
<path class="bond-12" d="m59.734 184.58-4.9665 1.357" fill="none" stroke="#00f" stroke-width="2px"/>
<path class="bond-12" d="m60.94 175.32-3.4765 0.95" fill="none" stroke="#000" stroke-width="2px"/>
<path class="bond-12" d="m57.464 176.27-3.4766 0.95" fill="none" stroke="#00f" stroke-width="2px"/>
<path class="bond-13" d="m31.864 183.73-14.206-21.638" fill="none" stroke="#00f" stroke-width="2px"/>
<text x="52.8419" y="58.754" fill="#000000" font-family="sans-serif" font-size="14px"><tspan>C:1</tspan></text>
<text x="19.5205" y="86.0151" fill="#0000FF" font-family="sans-serif" font-size="14px"><tspan>N:2</tspan></text>
<text x="26.4686" y="128.503" fill="#000000" font-family="sans-serif" font-size="14px"><tspan>C:3</tspan></text>
<text x="66.7381" y="143.729" fill="#000000" font-family="sans-serif" font-size="14px"><tspan>C:4</tspan></text>
<text x="100.059" y="116.468" fill="#000000" font-family="sans-serif" font-size="14px"><tspan>C:5</tspan></text>
<text x="140.329" y="131.695" fill="#000000" font-family="sans-serif" font-size="14px"><tspan>C:6</tspan></text>
<text x="174.606" y="104.434" fill="#33CCCC" font-family="sans-serif" font-size="14px"><tspan>F:7</tspan></text>
<text x="148.233" y="174.183" fill="#33CCCC" font-family="sans-serif" font-size="14px"><tspan>F:8</tspan></text>
<text x="64.7007" y="186.733" fill="#000000" font-family="sans-serif" font-size="14px"><tspan>C:9</tspan></text>
<text x="18.3828" y="198.084" fill="#0000FF" font-family="sans-serif" font-size="14px"><tspan>N:10</tspan></text>
<text x="-11.4652" y="162.096" fill="#0000FF" font-family="sans-serif" font-size="14px"><tspan>NH:11</tspan></text>
<text x="39.1922" y="16.2663" fill="#00CC00" font-family="sans-serif" font-size="14px"><tspan>Cl:12</tspan></text>
<text x="70.3745" y="194" fill="#000000" font-family="sans-serif" font-size="12px"><tspan>comp394</tspan></text>
</svg>

<?xml version='1.0' encoding='iso-8859-1'?>
<svg version='1.1' baseProfile='full'
              xmlns='http://www.w3.org/2000/svg'
                      xmlns:rdkit='http://www.rdkit.org/xml'
                      xmlns:xlink='http://www.w3.org/1999/xlink'
                  xml:space='preserve'
width='800px' height='200px' viewBox='0 0 800 200'>
<!-- END OF HEADER -->
<rect style='opacity:1.0;fill:#FFFFFF;stroke:none' width='800' height='200' x='0' y='0'> </rect>
<path class='bond-0' d='M 106.515,66.8052 L 112.289,102.118' style='fill:none;fill-rule:evenodd;stroke:#000000;stroke-width:2px;stroke-linecap:butt;stroke-linejoin:miter;stroke-opacity:1' />
<path class='bond-0' d='M 98.8832,73.4917 L 102.926,98.2103' style='fill:none;fill-rule:evenodd;stroke:#000000;stroke-width:2px;stroke-linecap:butt;stroke-linejoin:miter;stroke-opacity:1' />
<path class='bond-1' d='M 106.515,66.8052 L 79.6482,56.6466' style='fill:none;fill-rule:evenodd;stroke:#000000;stroke-width:2px;stroke-linecap:butt;stroke-linejoin:miter;stroke-opacity:1' />
<path class='bond-2' d='M 57.4746,58.754 L 49.5844,65.2092' style='fill:none;fill-rule:evenodd;stroke:#000000;stroke-width:2px;stroke-linecap:butt;stroke-linejoin:miter;stroke-opacity:1' />
<path class='bond-2' d='M 49.5844,65.2092 L 41.6941,71.6644' style='fill:none;fill-rule:evenodd;stroke:#0000FF;stroke-width:2px;stroke-linecap:butt;stroke-linejoin:miter;stroke-opacity:1' />
<path class='bond-2' d='M 60.5597,67.3548 L 55.0366,71.8734' style='fill:none;fill-rule:evenodd;stroke:#000000;stroke-width:2px;stroke-linecap:butt;stroke-linejoin:miter;stroke-opacity:1' />
<path class='bond-2' d='M 55.0366,71.8734 L 49.5134,76.3921' style='fill:none;fill-rule:evenodd;stroke:#0000FF;stroke-width:2px;stroke-linecap:butt;stroke-linejoin:miter;stroke-opacity:1' />
<path class='bond-3' d='M 65.0716,44.4033 L 62.771,30.3348' style='fill:none;fill-rule:evenodd;stroke:#000000;stroke-width:2px;stroke-linecap:butt;stroke-linejoin:miter;stroke-opacity:1' />
<path class='bond-3' d='M 62.771,30.3348 L 60.4703,16.2663' style='fill:none;fill-rule:evenodd;stroke:#00CC00;stroke-width:2px;stroke-linecap:butt;stroke-linejoin:miter;stroke-opacity:1' />
<path class='bond-4' d='M 34.0971,86.0151 L 36.3977,100.084' style='fill:none;fill-rule:evenodd;stroke:#0000FF;stroke-width:2px;stroke-linecap:butt;stroke-linejoin:miter;stroke-opacity:1' />
<path class='bond-4' d='M 36.3977,100.084 L 38.6984,114.152' style='fill:none;fill-rule:evenodd;stroke:#000000;stroke-width:2px;stroke-linecap:butt;stroke-linejoin:miter;stroke-opacity:1' />
<path class='bond-5' d='M 34.1207,128.503 L 26.4091,138.124' style='fill:none;fill-rule:evenodd;stroke:#000000;stroke-width:2px;stroke-linecap:butt;stroke-linejoin:miter;stroke-opacity:1' />
<path class='bond-5' d='M 26.4091,138.124 L 18.6976,147.745' style='fill:none;fill-rule:evenodd;stroke:#0000FF;stroke-width:2px;stroke-linecap:butt;stroke-linejoin:miter;stroke-opacity:1' />
<path class='bond-6' d='M 53.275,126.395 L 66.7381,131.486' style='fill:none;fill-rule:evenodd;stroke:#000000;stroke-width:2px;stroke-linecap:butt;stroke-linejoin:miter;stroke-opacity:1' />
<path class='bond-6' d='M 58.3398,119.105 L 67.764,122.669' style='fill:none;fill-rule:evenodd;stroke:#000000;stroke-width:2px;stroke-linecap:butt;stroke-linejoin:miter;stroke-opacity:1' />
<path class='bond-7' d='M 88.9117,129.379 L 104.692,116.468' style='fill:none;fill-rule:evenodd;stroke:#000000;stroke-width:2px;stroke-linecap:butt;stroke-linejoin:miter;stroke-opacity:1' />
<path class='bond-8' d='M 79.8013,143.729 L 78.4438,172.383' style='fill:none;fill-rule:evenodd;stroke:#000000;stroke-width:2px;stroke-linecap:butt;stroke-linejoin:miter;stroke-opacity:1' />
<path class='bond-9' d='M 126.866,114.361 L 140.329,119.452' style='fill:none;fill-rule:evenodd;stroke:#000000;stroke-width:2px;stroke-linecap:butt;stroke-linejoin:miter;stroke-opacity:1' />
<path class='bond-10' d='M 162.503,117.344 L 170.393,110.889' style='fill:none;fill-rule:evenodd;stroke:#000000;stroke-width:2px;stroke-linecap:butt;stroke-linejoin:miter;stroke-opacity:1' />
<path class='bond-10' d='M 170.393,110.889 L 178.283,104.434' style='fill:none;fill-rule:evenodd;stroke:#33CCCC;stroke-width:2px;stroke-linecap:butt;stroke-linejoin:miter;stroke-opacity:1' />
<path class='bond-11' d='M 154.906,131.695 L 157.206,145.763' style='fill:none;fill-rule:evenodd;stroke:#000000;stroke-width:2px;stroke-linecap:butt;stroke-linejoin:miter;stroke-opacity:1' />
<path class='bond-11' d='M 157.206,145.763 L 159.507,159.832' style='fill:none;fill-rule:evenodd;stroke:#33CCCC;stroke-width:2px;stroke-linecap:butt;stroke-linejoin:miter;stroke-opacity:1' />
<path class='bond-12' d='M 64.7007,183.221 L 59.7342,184.579' style='fill:none;fill-rule:evenodd;stroke:#000000;stroke-width:2px;stroke-linecap:butt;stroke-linejoin:miter;stroke-opacity:1' />
<path class='bond-12' d='M 59.7342,184.579 L 54.7677,185.936' style='fill:none;fill-rule:evenodd;stroke:#0000FF;stroke-width:2px;stroke-linecap:butt;stroke-linejoin:miter;stroke-opacity:1' />
<path class='bond-12' d='M 60.9405,175.323 L 57.464,176.273' style='fill:none;fill-rule:evenodd;stroke:#000000;stroke-width:2px;stroke-linecap:butt;stroke-linejoin:miter;stroke-opacity:1' />
<path class='bond-12' d='M 57.464,176.273 L 53.9874,177.223' style='fill:none;fill-rule:evenodd;stroke:#0000FF;stroke-width:2px;stroke-linecap:butt;stroke-linejoin:miter;stroke-opacity:1' />
<path class='bond-13' d='M 31.8641,183.734 L 17.6576,162.096' style='fill:none;fill-rule:evenodd;stroke:#0000FF;stroke-width:2px;stroke-linecap:butt;stroke-linejoin:miter;stroke-opacity:1' />
<text x='52.8419' y='58.754' style='font-size:14px;font-style:normal;font-weight:normal;fill-opacity:1;stroke:none;font-family:sans-serif;text-anchor:start;fill:#000000' ><tspan>C:1</tspan></text>
<text x='19.5205' y='86.0151' style='font-size:14px;font-style:normal;font-weight:normal;fill-opacity:1;stroke:none;font-family:sans-serif;text-anchor:start;fill:#0000FF' ><tspan>N:2</tspan></text>
<text x='26.4686' y='128.503' style='font-size:14px;font-style:normal;font-weight:normal;fill-opacity:1;stroke:none;font-family:sans-serif;text-anchor:start;fill:#000000' ><tspan>C:3</tspan></text>
<text x='66.7381' y='143.729' style='font-size:14px;font-style:normal;font-weight:normal;fill-opacity:1;stroke:none;font-family:sans-serif;text-anchor:start;fill:#000000' ><tspan>C:4</tspan></text>
<text x='100.059' y='116.468' style='font-size:14px;font-style:normal;font-weight:normal;fill-opacity:1;stroke:none;font-family:sans-serif;text-anchor:start;fill:#000000' ><tspan>C:5</tspan></text>
<text x='140.329' y='131.695' style='font-size:14px;font-style:normal;font-weight:normal;fill-opacity:1;stroke:none;font-family:sans-serif;text-anchor:start;fill:#000000' ><tspan>C:6</tspan></text>
<text x='174.606' y='104.434' style='font-size:14px;font-style:normal;font-weight:normal;fill-opacity:1;stroke:none;font-family:sans-serif;text-anchor:start;fill:#33CCCC' ><tspan>F:7</tspan></text>
<text x='148.233' y='174.183' style='font-size:14px;font-style:normal;font-weight:normal;fill-opacity:1;stroke:none;font-family:sans-serif;text-anchor:start;fill:#33CCCC' ><tspan>F:8</tspan></text>
<text x='64.7007' y='186.733' style='font-size:14px;font-style:normal;font-weight:normal;fill-opacity:1;stroke:none;font-family:sans-serif;text-anchor:start;fill:#000000' ><tspan>C:9</tspan></text>
<text x='18.3828' y='198.084' style='font-size:14px;font-style:normal;font-weight:normal;fill-opacity:1;stroke:none;font-family:sans-serif;text-anchor:start;fill:#0000FF' ><tspan>N:10</tspan></text>
<text x='-11.4652' y='162.096' style='font-size:14px;font-style:normal;font-weight:normal;fill-opacity:1;stroke:none;font-family:sans-serif;text-anchor:start;fill:#0000FF' ><tspan>NH:11</tspan></text>
<text x='39.1922' y='16.2663' style='font-size:14px;font-style:normal;font-weight:normal;fill-opacity:1;stroke:none;font-family:sans-serif;text-anchor:start;fill:#00CC00' ><tspan>Cl:12</tspan></text>
<text x='70.3745' y='194' style='font-size:12px;font-style:normal;font-weight:normal;fill-opacity:1;stroke:none;font-family:sans-serif;text-anchor:start;fill:#000000' ><tspan>comp394</tspan></text>
</svg>
